lib/logo_tmp/nrk-logo-nrk-mp3-title-below-on-light.svg

<svg width="35" height="35" viewBox="0 0 35 35" fill="none" xmlns="http://www.w3.org/2000/svg">
<rect x="3.33337" y="3.33325" width="28" height="28" fill="white"/>
<path fill-rule="evenodd" clip-rule="evenodd" d="M0 0H34.6667V34.6667H0V0ZM12.1153 15.9844C12.4247 15.7795 12.7871 15.6691 13.1582 15.6666H15.4505V27.2299H12.2727V19.3899L9.54945 21.4391L6.82619 19.3899V23.4825L3.66671 25.8572V15.6666H5.93978C6.31088 15.6691 6.67324 15.7795 6.98267 15.9844C7.24508 16.1471 9.38575 17.9643 9.54897 18.1029C9.71171 17.9628 11.8529 16.1457 12.1153 15.9844ZM15.9103 15.6666H19.48L19.6943 16.0164L19.6945 16.0168L19.6952 16.0179L19.6956 16.0185L19.6966 16.0202L19.697 16.0208L19.6984 16.023L19.6986 16.0234C21.1739 18.4312 21.1852 18.4497 21.4271 18.8608C21.5418 19.0085 21.6049 19.1897 21.6066 19.3767C21.6083 19.5637 21.5487 19.7461 21.4367 19.896C21.2013 20.2869 19.48 23.1017 19.48 23.1017H15.9103L17.9744 19.7178C18.0472 19.6186 18.0854 19.4982 18.083 19.3752C18.0807 19.2522 18.0379 19.1333 17.9614 19.037C17.9383 18.9961 15.9103 15.6666 15.9103 15.6666ZM30.66 17.5829C30.5401 17.3783 29.4775 15.6666 29.4775 15.6666H21.8373L23.5061 18.465H27.5299L25.8688 21.1868L27.721 24.2957L25.9352 27.2328H29.1968C29.5608 26.6371 30.05 25.8153 30.3698 25.2779C30.5106 25.0414 30.6186 24.8599 30.6686 24.7772C30.7811 24.627 30.8411 24.444 30.8394 24.2564C30.8378 24.0688 30.7746 23.8869 30.6595 23.7387C30.5764 23.5972 30.3107 23.1708 30.0009 22.6736C29.7002 22.1911 29.358 21.642 29.101 21.222C29.101 21.222 30.5054 18.8945 30.6691 18.622C30.7817 18.4717 30.8418 18.2886 30.8401 18.1009C30.8385 17.9132 30.7752 17.7312 30.66 17.5829ZM23.3102 21.6067C22.8075 22.4281 21.9664 23.8042 21.8089 24.0729C21.6981 24.2155 21.6371 24.3907 21.6355 24.5714C21.6338 24.752 21.6916 24.9282 21.7998 25.0729C21.9572 25.3348 22.8051 26.722 23.3102 27.5482C23.8153 26.722 24.6627 25.3334 24.8206 25.0729C24.9288 24.9282 24.9865 24.752 24.9849 24.5714C24.9832 24.3907 24.9223 24.2155 24.8114 24.0729C24.654 23.8042 23.8148 22.4281 23.3102 21.6067ZM8.00006 7.48942V14.0207H10.1436V7.48942H8.00006ZM14.2928 14.0207L13.06 8.52891C13.0008 8.23819 12.8432 7.97675 12.614 7.78841C12.3851 7.59184 12.0923 7.4855 11.7906 7.48942H10.4748L11.9468 14.0207H14.2928ZM14.6148 7.48942V14.0207H16.7584V7.48942H14.6148ZM17.7198 9.79838C17.9191 9.91498 18.1463 9.9754 18.3773 9.97318C18.3772 9.97318 18.3772 9.97318 18.3771 9.97318H18.3774C18.3774 9.97318 18.3773 9.97318 18.3773 9.97318C18.607 9.97587 18.833 9.91539 19.0306 9.79838C19.2254 9.68369 19.387 9.52045 19.4998 9.32461C19.6165 9.12519 19.6769 8.89793 19.6748 8.66692C19.6773 8.43731 19.6168 8.2114 19.4998 8.01378C19.3858 7.82008 19.2243 7.6586 19.0306 7.54463C18.8329 7.42782 18.607 7.36735 18.3774 7.36982C18.1465 7.36772 17.9192 7.42813 17.7198 7.54463C17.5241 7.65761 17.3609 7.81922 17.246 8.01378C17.1289 8.21135 17.0684 8.43729 17.071 8.66692C17.0687 8.89795 17.1292 9.12524 17.246 9.32461C17.3597 9.52131 17.5231 9.6847 17.7198 9.79838ZM20.0059 7.48942V14.0207H22.1497V7.48942H20.0059ZM25.0015 11.284C24.9156 11.1401 24.8696 11.065 24.8635 11.0586H24.8632C24.7974 10.9705 24.759 10.8649 24.753 10.7551C24.7568 10.6505 24.7886 10.5488 24.845 10.4606L26.6667 7.48927H24.3115C24.1644 7.72864 24.031 7.94636 23.9112 8.1424C23.792 8.33864 23.6648 8.5487 23.5297 8.77255C23.3946 8.99639 23.2611 9.21564 23.1292 9.43028C22.9973 9.64492 22.8823 9.83042 22.7842 9.9868C22.6861 10.1432 22.6186 10.2521 22.5818 10.3134C22.4946 10.445 22.4439 10.5974 22.4347 10.7551C22.4462 10.9193 22.5 11.0778 22.591 11.215C22.6277 11.2703 22.6937 11.3777 22.7889 11.537C22.8838 11.6962 22.9972 11.8817 23.1292 12.0935C23.2612 12.3053 23.3947 12.523 23.5297 12.7467C23.6644 12.9705 23.7916 13.179 23.9112 13.3722C24.0308 13.5654 24.1642 13.7816 24.3115 14.0207H26.6667C26.4947 13.7387 26.3414 13.4858 26.2067 13.2618C26.0716 13.0379 25.9274 12.8002 25.7742 12.5489C25.6209 12.2975 25.4753 12.0599 25.3373 11.836C25.1994 11.6119 25.0875 11.4279 25.0015 11.284Z" fill="black"/>
</svg>

<svg xmlns="http://www.w3.org/2000/svg" viewBox="0 0 35 35"><path fill="#fff" d="M3.333 3.333h28v28h-28z"/><path fill="#000" fill-rule="evenodd" d="M0 0h34.667v34.667H0V0Zm12.115 15.984c.31-.204.672-.315 1.043-.317h2.293V27.23h-3.178v-7.84l-2.724 2.05-2.723-2.05v4.093l-3.16 2.374v-10.19H5.94c.37.002.733.113 1.043.317.262.163 2.403 1.98 2.566 2.119.163-.14 2.304-1.957 2.566-2.119Zm3.795-.317h3.57l.214.35h.001v.002l.002.001.001.003c1.476 2.408 1.487 2.427 1.73 2.838a.854.854 0 0 1 .009 1.035c-.236.39-1.957 3.206-1.957 3.206h-3.57l2.064-3.384a.56.56 0 0 0-.013-.681c-.023-.04-2.05-3.37-2.05-3.37Zm14.75 1.916c-.12-.205-1.183-1.916-1.183-1.916h-7.64l1.67 2.798h4.023l-1.661 2.722 1.852 3.109-1.786 2.937h3.262c.364-.596.853-1.418 1.173-1.955.14-.237.249-.418.299-.5a.856.856 0 0 0-.01-1.04c-.083-.14-.348-.567-.658-1.064-.3-.483-.643-1.032-.9-1.452l1.568-2.6a.856.856 0 0 0-.009-1.04Zm-7.35 4.024c-.502.821-1.344 2.197-1.501 2.466a.825.825 0 0 0-.01 1c.158.262 1.006 1.649 1.511 2.475.505-.826 1.353-2.215 1.51-2.475a.825.825 0 0 0-.009-1c-.157-.269-.996-1.645-1.5-2.466ZM8 7.489v6.532h2.144V7.489H8Zm6.293 6.532L13.06 8.529a1.292 1.292 0 0 0-.446-.74 1.24 1.24 0 0 0-.823-.3h-1.316l1.472 6.532h2.346Zm.322-6.532v6.532h2.143V7.489h-2.143ZM17.72 9.8c.2.116.426.176.657.174.23.003.456-.058.654-.175a1.306 1.306 0 0 0 .644-1.131 1.255 1.255 0 0 0-.175-.653 1.323 1.323 0 0 0-.47-.47 1.258 1.258 0 0 0-.653-.174 1.312 1.312 0 0 0-1.131.644 1.253 1.253 0 0 0-.175.653 1.297 1.297 0 0 0 .649 1.131Zm2.286-2.31v6.532h2.144V7.489h-2.144ZM25 11.284a4.962 4.962 0 0 0-.138-.225.558.558 0 0 1-.11-.304.586.586 0 0 1 .092-.294l1.822-2.972H24.31a307.891 307.891 0 0 0-.781 1.284 96.342 96.342 0 0 1-.948 1.54.894.894 0 0 0-.147.442.952.952 0 0 0 .156.46c.037.055.103.163.198.322.095.16.208.345.34.556.132.212.266.43.4.654.135.223.263.432.382.625l.4.649h2.356a142.7 142.7 0 0 1-.46-.76 183.366 183.366 0 0 0-.87-1.425c-.138-.224-.25-.408-.335-.552Z" clip-rule="evenodd"/></svg>
